X: 1504
T: Nikrîz Seyir
C: Şefik Gürmeriç
O: Turkey
F: http://compmusic.upf.edu/node/140
N: nikriz--seyir--duyek--1--sefik_gurmeric
N: makam= nikriz
N: form= seyir
N: usul= duyek = 8/4
M: 8/4
L: 1/16
K: C _7/8B ^3/4f ^c 
Q: 1/4=120
%%MIDI tuningsystem comma53
D2 G4 A2 G4 A4  | B3A G2 ^F2 G8  | G2 d4 d2 d3c BA B2  | \
w:   |   |   | 
c2 d2 e=f ed d8  | 
w:   | 
d2 g4 g2 g4 d4  | e4 ^f4 g8  | ^f2 g4 b2 g2 =f2 e2 d2  | \
w:   |   |   | 
eg =fe d2 c2 d8  | 
w:   | 
e2 =f4 f2 f2 e2 e2 d2  | dc de d2 =c2 _1/4B2 ^A2 B4  | \
w:   |   | 
c2 d2 e2 g2 =f2 e2 d2 c2  | 
w:   | 
dc B4 AG G8  | ^F2 G2 Ac BA A4 a4  | \
w:   |   | 
g2 =f2 e2 d2 d3c BA B2  | 
w:   | 
cd e4 d2 de dc BA G2  | B2 A2 G2 ^F2 G8  | |


